X: 06059
T: MISS MUFFIE'S MEOW
C: Bob McQuillen 8 Aug 82
B: Bob's Note Book 6 #59
%R: jig
Z: 2021 John Chambers <jc:trillian.mit.edu>
M: 6/8
L: 1/8
K: D
A2G \
| FED A,DE | FDB, A,DE | FDF AFB | AFD D2E |\
| FGA GAB | Ace fdB | AFD EFE | D3 :|
|: d2e \
| fdB Adf | edB Ade | fdf aba | fdd d2A |\
| BAB cde | dfb afd | Bcd cde | d3 :|
%%begintext align
%% You'll just have to ask Mary
%% Hamilton about this tune.
%% Mary was one of my great school-girls,
%% but she moved to Keene, and I don't
%% see her as often - Lots of love to you, Mary.
%%endtext

%%sep 1 1 500

%%sep 1 1 500

